X:1
T:Johanca Valcek
T:Jo Ann Waltz
M:3/4
L:1/4
K:G
B/c/ |: "G"d2B | A2G | "D7"GF2-|F2 c/d/ | e2c | d2c | "G"cB2-|B z B/c/ |
d2B | A2G | "D7"GF2-|F2 B | "A7"A^ce | gfe | "D"d3-|1 d z B/c/ :|2 d z B ||
|: "D7"c2^G | A2B | c3-|c2^c | "G"d2^A | B2c | d3-|d3 |
"G"Bdg |"D7"g2f | c2g | f3 | FAf |"(G)"e2d |"Gdim(A7)"^c2e |"G(D)"d3-|"G"d z B |
   "D7"c2^G | A2B | c3-|c2^c | "G"d2^A | B2c | d3-|d3 |
"G"Bcd |"C"e2E-|Efe |"G"d2B-|B z d |"D7"d2e | f2d |1 "G"g3-|gzB :|2 g3-|gz2 ||
